svgs/gboard.svg

<svg width="192" height="192" viewBox="0 0 192 192" fill="none" xmlns="http://www.w3.org/2000/svg"><path fill-rule="evenodd" clip-rule="evenodd" d="M64 28a2 2 0 0 0-2 2v49.542a2 2 0 0 0 .948 1.701L96 101.694l33.052-20.45a2 2 0 0 0 .948-1.702V30a2 2 0 0 0-2-2H64Zm-14 2c0-7.732 6.268-14 14-14h64c7.732 0 14 6.268 14 14v49.542a14 14 0 0 1-6.634 11.906l-34.104 21.102a10 10 0 0 1-10.524 0L56.634 91.448A14 14 0 0 1 50 79.542V30ZM32 90a4 4 0 0 0-4 4v68a4 4 0 0 0 4 4h128a4 4 0 0 0 4-4V94a4 4 0 0 0-4-4h-4a6 6 0 1 1 0-12h4c8.837 0 16 7.163 16 16v68c0 8.837-7.163 16-16 16H32c-8.837 0-16-7.163-16-16V94c0-8.837 7.163-16 16-16h4a6 6 0 0 1 0 12h-4Zm49-31c0-8.284 6.716-15 15-15 4.143 0 7.888 1.675 10.607 4.393a3.999 3.999 0 0 0 5.656 0 3.998 3.998 0 0 0 0-5.657A22.938 22.938 0 0 0 96 36c-12.703 0-23 10.297-23 23s10.297 23 23 23 23-10.297 23-23a4 4 0 0 0-4-4H96a4 4 0 0 0 0 8h14.461C108.71 69.342 102.899 74 96 74c-8.284 0-15-6.716-15-15Zm-25 93a6 6 0 0 1 6-6h68a6 6 0 1 1 0 12H62a6 6 0 0 1-6-6Zm-8-14a8 8 0 1 0 0-16 8 8 0 0 0 0 16Zm8-32a8 8 0 1 1-16 0 8 8 0 0 1 16 0Zm16 32a8 8 0 1 0 0-16 8 8 0 0 0 0 16Zm56-8a8 8 0 1 1-16 0 8 8 0 0 1 16 0Zm16 8a8 8 0 1 0 0-16 8 8 0 0 0 0 16Zm8-32a8 8 0 1 1-16 0 8 8 0 0 1 16 0Zm-56 32a8 8 0 1 0 0-16 8 8 0 0 0 0 16Z" fill="#000"/></svg>

<?xml version="1.0" encoding="UTF-8" standalone="no"?><svg xmlns:android="http://schemas.android.com/apk/res/android" android:name="vector" height="192" width="192" xmlns="http://www.w3.org/2000/svg">
    <path android:name="path_1" d="M 64 28 C 62.895 28 62 28.895 62 30 L 62 79.542 C 62 80.235 62.358 80.879 62.948 81.243 L 96 101.694 L 129.052 81.243 C 129.641 80.879 130 80.235 130 79.542 L 130 30 C 130 28.895 129.105 28 128 28 L 64 28 Z M 50 30 C 50 22.268 56.268 16 64 16 L 128 16 C 135.732 16 142 22.268 142 30 L 142 79.542 C 142 84.392 139.49 88.896 135.366 91.448 L 101.262 112.55 C 98.037 114.545 93.962 114.545 90.738 112.55 L 56.634 91.448 C 52.51 88.896 50 84.392 50 79.542 L 50 30 Z M 32 90 C 29.791 90 28 91.791 28 94 L 28 162 C 28 164.209 29.791 166 32 166 L 160 166 C 162.209 166 164 164.209 164 162 L 164 94 C 164 91.791 162.209 90 160 90 L 156 90 C 152.686 90 150 87.314 150 84 C 150 80.686 152.686 78 156 78 L 160 78 C 168.837 78 176 85.163 176 94 L 176 162 C 176 170.837 168.837 178 160 178 L 32 178 C 23.163 178 16 170.837 16 162 L 16 94 C 16 85.163 23.163 78 32 78 L 36 78 C 39.314 78 42 80.686 42 84 C 42 87.314 39.314 90 36 90 L 32 90 Z M 81 59 C 81 50.716 87.716 44 96 44 C 100.143 44 103.888 45.675 106.607 48.393 C 108.169 49.956 110.701 49.956 112.263 48.393 C 113.826 46.831 113.826 44.299 112.263 42.736 C 108.106 38.579 102.35 36 96 36 C 83.297 36 73 46.297 73 59 C 73 71.703 83.297 82 96 82 C 108.703 82 119 71.703 119 59 C 119 56.791 117.209 55 115 55 L 96 55 C 93.791 55 92 56.791 92 59 C 92 61.209 93.791 63 96 63 L 110.461 63 C 108.71 69.342 102.899 74 96 74 C 87.716 74 81 67.284 81 59 Z M 56 152 C 56 148.686 58.686 146 62 146 L 130 146 C 133.314 146 136 148.686 136 152 C 136 155.314 133.314 158 130 158 L 62 158 C 58.686 158 56 155.314 56 152 Z M 48 138 C 52.418 138 56 134.418 56 130 C 56 125.582 52.418 122 48 122 C 43.582 122 40 125.582 40 130 C 40 134.418 43.582 138 48 138 Z M 56 106 C 56 110.418 52.418 114 48 114 C 43.582 114 40 110.418 40 106 C 40 101.582 43.582 98 48 98 C 52.418 98 56 101.582 56 106 Z M 72 138 C 76.418 138 80 134.418 80 130 C 80 125.582 76.418 122 72 122 C 67.582 122 64 125.582 64 130 C 64 134.418 67.582 138 72 138 Z M 128 130 C 128 134.418 124.418 138 120 138 C 115.582 138 112 134.418 112 130 C 112 125.582 115.582 122 120 122 C 124.418 122 128 125.582 128 130 Z M 144 138 C 148.418 138 152 134.418 152 130 C 152 125.582 148.418 122 144 122 C 139.582 122 136 125.582 136 130 C 136 134.418 139.582 138 144 138 Z M 152 106 C 152 110.418 148.418 114 144 114 C 139.582 114 136 110.418 136 106 C 136 101.582 139.582 98 144 98 C 148.418 98 152 101.582 152 106 Z M 96 138 C 100.418 138 104 134.418 104 130 C 104 125.582 100.418 122 96 122 C 91.582 122 88 125.582 88 130 C 88 134.418 91.582 138 96 138 Z" fill="#000000" fill-rule="evenOdd" stroke-width="1"/>
</svg>
